!!!OTL: Tim Finnigan's Wake
!!!ONM: 86.
**kern
*clefG2
*k[b-]
*F:
*M4/4
*MM110
{4a
=1
8f
8f
4d
4c
4A
=2
4c
4c
4c}
{4c
=3
8f
8f
4f
8g
8g
4f
=4
4a
4g
4g}
{8.a
16g
=5
8f
8f
4d
4c
4A
=6
4c
4c
4c}
{8c
8c
=7
4f
8f
8f
4g
4f
=8
8a
8a
4f
4f}
{4a
=9
4g
4g
4a
4b-
=10
4cc
4cc
4cc}
{8g
8g
=11
4a
4b-
8cc
8cc
4a
=12
4b-
4g
4g}
{(8.a
16g)
=13
4f
4d
4c
4A
=14
4c
4c
4c}
{4c
=15
4f
8f
8f
4g
4f
=16
4a
4f
4.f
8r}
=17||
{4.a
8f
4d
4A
=18
4.c
8c
4d
4c}
=19
{4f
4f
4g
4f
=20
4a
4g
4g}
{4a
=21
4.f
8d
4c
4A
=22
4c
4c
4d
4c}
=23
{4f
4f
4g
4f
=24
8a
8a
4f
4f}
==
*-
!!!CNT: Folksongs of Maritime Canada
!!!MRD: 1928///-1932///
!!!OCL: Helen Creighton
!!!YOR: Songs and Ballads from Nova Scotia
!!!PPR: J.M. Dent & Sons, Limited
!!!PPP: Toronto, Canada
!!!PDT: 1932///
!!!reprint: Dover Publications, 1992: ISBN 0-486-21703-5
!!!ENC1: Craig Stuart Sapp (music and bibliographic data)                       
!!!ENC2: Marcus Pearce (phrase markings and key designations)                   
!!!ENC3: Darrell Conklin (phrase markings and key designations)   
!!!END: 2002/04/10/
!!!EEV: 2004/06/05
!!!MPN: Mr. Frank Faulkner
!!!PPG: 185
!!!EFL: 87/152
!!!ARE: Canada; Nova Scotia
!!!verses: 5
!!!VTS: 1874508816
